X:905
T:the First of August
A:Wyresdale, Lancashire
B:E and J Winder, 1835-41
L:1/8
M:C|
O:England
Z:Richard Robinson 
%%TUNEURL: http://www.leeds.ac.uk/music/Info/RRTuneBk/gettune/00001096.html
%%ID:00001096
K:G
A2A2 F2F2 | B2B2 A2A2 | Bcd2 cde2 | f2gf e4 | \
A2A2 F2F2 | B2B2 A2A2 | Bcd2 cde2 | f3e d4 ::
f2gf e2dc | d2ed c2B2 | Bcd2 cde2 | f2gf e4 | \
A2A2 F2F2 | B2B2 A2A2 | Bcd2 cde2 | f2e2 d4 ::
